src/epub/images/titlepage.svg

<?xml version="1.0" encoding="utf-8"?>
<svg xmlns="http://www.w3.org/2000/svg" xmlns:svg="http://www.w3.org/2000/svg" version="1.1" viewBox="0 0 1400 540">
	<title>The titlepage for the Standard Ebooks edition of A Connecticut Yankee in King Arthur’s Court, by Mark Twain</title>
	<g>
		<path d="m 314.32529,52.807016 -16.28071,0 L 266.88669,130 l 18.90058,0 5.70761,-15.4386 29.38011,0 5.70761,15.4386 18.90058,0 -31.15789,-77.192984 z m 0.5614,46.31579 -17.40351,0 8.60819,-22.45614 0.18713,0 8.60819,22.45614 z"/>
		<path d="m 422.13962,114.09357 c -17.68421,0 -25.4503,-12.35088 -25.4503,-22.736846 0,-10.292397 7.76609,-22.643275 25.4503,-22.643275 8.98245,0 15.15789,4.77193 15.15789,4.77193 l 7.48538,-14.97076 c 0,0 -8.60819,-7.111112 -25.35672,-7.111112 -21.89474,0 -41.82457,17.964913 -41.82457,40.140352 0,22.081871 20.0234,39.859651 41.82457,39.859651 16.74853,0 25.35672,-7.11111 25.35672,-7.11111 l -7.48538,-14.97076 c 0,0 -6.17544,4.77193 -15.15789,4.77193 z"/>
		<path d="m 453.14254,91.356724 c 0,22.549706 16.09356,40.046786 38.92397,40.046786 22.17544,0 38.83041,-17.49708 38.83041,-40.046786 0,-22.549708 -17.40351,-39.953217 -38.83041,-39.953217 -21.23976,0 -38.92397,17.403509 -38.92397,39.953217 z m 18.99415,0 c 0,-11.508772 6.36257,-23.017544 19.92982,-23.017544 13.66082,0 19.83626,11.508772 19.83626,23.017544 0,11.508776 -5.80117,23.017546 -19.83626,23.017546 -14.40935,0 -19.92982,-11.50877 -19.92982,-23.017546 z"/>
		<path d="m 561.24928,82.093566 0.18713,0 L 592.12647,130 l 17.59064,0 0,-77.192984 -17.59064,0 0,47.906434 -0.18714,0 -30.69005,-47.906434 -17.59065,0 0,77.192984 17.59065,0 0,-47.906434 z"/>
		<path d="m 643.55189,82.093566 0.18713,0 L 674.42908,130 l 17.59064,0 0,-77.192984 -17.59064,0 0,47.906434 -0.18713,0 -30.69006,-47.906434 -17.59065,0 0,77.192984 17.59065,0 0,-47.906434 z"/>
		<path d="m 752.42763,52.807016 -44.16374,0 0,77.192984 44.16374,0 0,-15.4386 -26.5731,0 0,-15.532161 25.45029,0 0,-15.438597 -25.45029,0 0,-15.345029 26.5731,0 0,-15.438597 z"/>
		<path d="m 808.61625,114.09357 c -17.68421,0 -25.45029,-12.35088 -25.45029,-22.736846 0,-10.292397 7.76608,-22.643275 25.45029,-22.643275 8.98245,0 15.15789,4.77193 15.15789,4.77193 l 7.48538,-14.97076 c 0,0 -8.60818,-7.111112 -25.35672,-7.111112 -21.89474,0 -41.82456,17.964913 -41.82456,40.140352 0,22.081871 20.02339,39.859651 41.82456,39.859651 16.74854,0 25.35672,-7.11111 25.35672,-7.11111 l -7.48538,-14.97076 c 0,0 -6.17544,4.77193 -15.15789,4.77193 z"/>
		<path d="m 838.21568,68.245613 18.33918,0 0,61.754387 17.59065,0 0,-61.754387 18.33918,0 0,-15.438597 -54.26901,0 0,15.438597 z"/>
		<path d="m 921.4101,52.807016 -17.59064,0 0,77.192984 17.59064,0 0,-77.192984 z"/>
		<path d="m 975.8458,114.09357 c -17.68421,0 -25.45029,-12.35088 -25.45029,-22.736846 0,-10.292397 7.76608,-22.643275 25.45029,-22.643275 8.98246,0 15.1579,4.77193 15.1579,4.77193 l 7.48538,-14.97076 c 0,0 -8.60819,-7.111112 -25.35673,-7.111112 -21.89474,0 -41.82456,17.964913 -41.82456,40.140352 0,22.081871 20.02339,39.859651 41.82456,39.859651 16.74854,0 25.35673,-7.11111 25.35673,-7.11111 l -7.48538,-14.97076 c 0,0 -6.17544,4.77193 -15.1579,4.77193 z"/>
		<path d="m 1069.6323,52.807016 -17.5906,0 0,44.63158 c 0,12.912284 -3.9299,16.654974 -12.538,16.654974 -8.6082,0 -12.5381,-3.74269 -12.5381,-16.654974 l 0,-44.63158 -17.5906,0 0,49.777774 c 0,19.08772 10.4795,28.81872 30.1287,28.81872 19.6491,0 30.1286,-9.731 30.1286,-28.81872 l 0,-49.777774 z"/>
		<path d="m 1075.5036,68.245613 18.3392,0 0,61.754387 17.5907,0 0,-61.754387 18.3392,0 0,-15.438597 -54.2691,0 0,15.438597 z"/>
	</g>
	<g>
		<path d="m 414.6747,152.80702 28.44445,42.5731 0,34.61988 17.59064,0 0,-34.61988 28.44445,-42.5731 -21.1462,0 -16.09357,24.70175 -16.09357,-24.70175 -21.1462,0 z"/>
		<path d="m 527.7902,152.80702 -16.2807,0 L 480.35161,230 l 18.90058,0 5.7076,-15.4386 29.38012,0 5.7076,15.4386 18.90059,0 -31.1579,-77.19298 z m 0.56141,46.31579 -17.40351,0 8.60819,-22.45614 0.18713,0 8.60819,22.45614 z"/>
		<path d="m 584.45834,182.09357 0.18714,0 30.69005,47.90643 17.59065,0 0,-77.19298 -17.59065,0 0,47.90643 -0.18713,0 -30.69006,-47.90643 -17.59064,0 0,77.19298 17.59064,0 0,-47.90643 z"/>
		<path d="m 719.43933,230 -35.92982,-40.60819 31.06433,-36.58479 -21.33334,0 -26.47953,31.53216 0,-31.53216 -17.59064,0 0,77.19298 17.59064,0 0,-32.74854 28.44444,32.74854 24.23392,0 z"/>
		<path d="m 771.98173,152.80702 -44.16375,0 0,77.19298 44.16375,0 0,-15.4386 -26.5731,0 0,-15.53216 25.45029,0 0,-15.4386 -25.45029,0 0,-15.34503 26.5731,0 0,-15.43859 z"/>
		<path d="m 831.25803,152.80702 -44.16374,0 0,77.19298 44.16374,0 0,-15.4386 -26.5731,0 0,-15.53216 25.4503,0 0,-15.4386 -25.4503,0 0,-15.34503 26.5731,0 0,-15.43859 z"/>
		<path d="m 894.54605,152.80702 -17.59064,0 0,77.19298 17.59064,0 0,-77.19298 z"/>
		<path d="m 928.42032,182.09357 0.18713,0 30.69006,47.90643 17.59064,0 0,-77.19298 -17.59064,0 0,47.90643 -0.18713,0 -30.69006,-47.90643 -17.59065,0 0,77.19298 17.59065,0 0,-47.90643 z"/>
	</g>
	<g>
		<path d="m 162.16958,330 -35.92982,-40.60819 31.06432,-36.58479 -21.33333,0 -26.47953,31.53216 0,-31.53216 -17.590645,0 0,77.19298 17.590645,0 0,-32.74854 28.44444,32.74854 24.23392,0 z"/>
		<path d="m 188.13888,252.80702 -17.59065,0 0,77.19298 17.59065,0 0,-77.19298 z"/>
		<path d="m 222.01315,282.09357 0.18713,0 30.69006,47.90643 17.59064,0 0,-77.19298 -17.59064,0 0,47.90643 -0.18714,0 -30.69005,-47.90643 -17.59065,0 0,77.19298 17.59065,0 0,-47.90643 z"/>
		<path d="m 356.52632,286.77193 -35.64913,0 0,13.56725 17.77778,0 c 0,9.45029 -8.32749,14.87719 -16.74854,14.87719 -10.8538,0 -19.64912,-10.66666 -19.64912,-23.76608 0,-13.38012 8.79532,-24.14035 19.64912,-24.14035 6.83041,0 12.72515,2.71345 17.21638,9.91813 l 11.50877,-12.63158 c -6.73684,-8.14035 -16.18714,-13.19298 -29.75439,-13.19298 -21.7076,0 -37.61403,17.87134 -37.61403,40.04678 0,22.08187 16.8421,39.95322 37.61403,39.95322 15.1579,0 31.4386,-8.32749 35.64913,-27.88304 l 0,-16.74854 z"/>
		<path d="m 439,252.80702 -16.2807,0 L 391.5614,330 l 18.90059,0 5.7076,-15.4386 29.38012,0 5.7076,15.4386 18.90058,0 L 439,252.80702 Z m 0.5614,46.31579 -17.40351,0 8.60819,-22.45614 0.18714,0 8.60818,22.45614 z"/>
		<path d="m 478.07749,252.80702 0,77.19298 17.59064,0 0,-30.50292 23.57895,30.50292 22.36257,0 -26.5731,-31.90643 c 9.45029,-2.99416 15.81287,-10.76024 15.81287,-22.36258 0,-15.15789 -10.85381,-22.92397 -25.1696,-22.92397 l -27.60233,0 z m 17.59064,34.24561 0,-20.21053 2.05848,0 c 6.64327,0 14.59649,0.46784 14.59649,10.10527 0,9.63742 -7.95322,10.10526 -14.59649,10.10526 l -2.05848,0 z"/>
		<path d="m 541.62571,268.24561 18.33919,0 0,61.75439 17.59064,0 0,-61.75439 18.33918,0 0,-15.43859 -54.26901,0 0,15.43859 z"/>
		<path d="m 624.8202,299.02924 24.88889,0 0,30.97076 17.59064,0 0,-77.19298 -17.59064,0 0,30.78362 -24.88889,0 0,-30.78362 -17.59065,0 0,77.19298 17.59065,0 0,-30.97076 z"/>
		<path d="m 742.8231,252.80702 -17.59064,0 0,44.63158 c 0,12.91228 -3.92982,16.65497 -12.53801,16.65497 -8.60819,0 -12.53801,-3.74269 -12.53801,-16.65497 l 0,-44.63158 -17.59065,0 0,49.77777 c 0,19.08772 10.47954,28.81872 30.12866,28.81872 19.64912,0 30.12865,-9.731 30.12865,-28.81872 l 0,-49.77777 z"/>
		<path d="m 758.12866,252.80702 0,77.19298 17.59065,0 0,-30.50292 23.57894,30.50292 22.36258,0 -26.5731,-31.90643 c 9.45029,-2.99416 15.81286,-10.76024 15.81286,-22.36258 0,-15.15789 -10.8538,-22.92397 -25.16959,-22.92397 l -27.60234,0 z m 17.59065,34.24561 0,-20.21053 2.05848,0 c 6.64327,0 14.59649,0.46784 14.59649,10.10527 0,9.63742 -7.95322,10.10526 -14.59649,10.10526 l -2.05848,0 z"/>
		<path d="m 839.83482,251.40351 c -5.33334,0 -9.63743,4.39766 -9.63743,9.82456 0,4.39766 3.18129,7.76608 7.29824,8.79532 C 836.18569,277.1345 831.03949,282 831.03949,282 l 4.39766,3.46199 c 6.83041,-5.7076 14.22223,-14.03509 14.22223,-24.23392 0,-5.4269 -4.39766,-9.82456 -9.82456,-9.82456 z"/>
		<path d="m 890.87133,251.40351 c -12.44445,0 -25.1696,9.16959 -25.1696,23.57895 0,8.04678 5.42691,15.25146 14.69006,19.83625 9.16959,4.5848 17.40351,7.11111 17.40351,12.72515 0,7.20468 -7.29824,7.57895 -11.1345,7.57895 -8.60819,0 -18.90059,-8.70176 -18.90059,-8.70176 l -8.79532,14.78363 c 0,0 10.94737,10.19883 29.00585,10.19883 15.06433,0 29.09942,-6.45614 29.09942,-24.88889 0,-10.10526 -9.4503,-17.40351 -18.05848,-21.05263 -8.79532,-3.74269 -16.09357,-6.83041 -16.09357,-11.13451 0,-4.21052 3.18129,-6.92397 9.16959,-6.92397 7.95322,0 15.62573,5.33333 15.62573,5.33333 l 7.11111,-14.03509 c 0,0 -9.91813,-7.29824 -23.95321,-7.29824 z"/>
		<path d="m 999.02927,314.09357 c -17.68421,0 -25.45029,-12.35088 -25.45029,-22.73685 0,-10.29239 7.76608,-22.64327 25.45029,-22.64327 8.98243,0 15.15793,4.77193 15.15793,4.77193 l 7.4853,-14.97076 c 0,0 -8.6081,-7.11111 -25.35668,-7.11111 -21.89474,0 -41.82456,17.96491 -41.82456,40.14035 0,22.08187 20.02339,39.85965 41.82456,39.85965 16.74858,0 25.35668,-7.11111 25.35668,-7.11111 l -7.4853,-14.97076 c 0,0 -6.1755,4.77193 -15.15793,4.77193 z"/>
		<path d="m 1030.0322,291.35672 c 0,22.54971 16.0935,40.04679 38.9239,40.04679 22.1755,0 38.8304,-17.49708 38.8304,-40.04679 0,-22.5497 -17.4035,-39.95321 -38.8304,-39.95321 -21.2397,0 -38.9239,17.40351 -38.9239,39.95321 z m 18.9941,0 c 0,-11.50877 6.3626,-23.01754 19.9298,-23.01754 13.6608,0 19.8363,11.50877 19.8363,23.01754 0,11.50878 -5.8012,23.01755 -19.8363,23.01755 -14.4093,0 -19.9298,-11.50877 -19.9298,-23.01755 z"/>
		<path d="m 1179.8699,252.80702 -17.5906,0 0,44.63158 c 0,12.91228 -3.9298,16.65497 -12.538,16.65497 -8.6082,0 -12.538,-3.74269 -12.538,-16.65497 l 0,-44.63158 -17.5907,0 0,49.77777 c 0,19.08772 10.4795,28.81872 30.1287,28.81872 19.6491,0 30.1286,-9.731 30.1286,-28.81872 l 0,-49.77777 z"/>
		<path d="m 1195.1755,252.80702 0,77.19298 17.5906,0 0,-30.50292 23.579,30.50292 22.3625,0 -26.5731,-31.90643 c 9.4503,-2.99416 15.8129,-10.76024 15.8129,-22.36258 0,-15.15789 -10.8538,-22.92397 -25.1696,-22.92397 l -27.6023,0 z m 17.5906,34.24561 0,-20.21053 2.0585,0 c 6.6433,0 14.5965,0.46784 14.5965,10.10527 0,9.63742 -7.9532,10.10526 -14.5965,10.10526 l -2.0585,0 z"/>
		<path d="m 1258.7237,268.24561 18.3392,0 0,61.75439 17.5906,0 0,-61.75439 18.3392,0 0,-15.43859 -54.269,0 0,15.43859 z"/>
	</g>
	<g>
		<path d="m 483.95614,490 13.19298,0 -5.19298,-57.89474 -14.03509,0 -12.8421,33.40351 -12.84211,-33.40351 -14.03508,0 -5.19299,57.89474 13.19299,0 2.73684,-34.31579 0.35088,0 11.85964,33.96491 7.85965,0 11.85965,-33.96491 0.35088,0 L 483.95614,490 Z"/>
		<path d="m 536.83772,432.10526 -12.21053,0 L 501.25877,490 l 14.17544,0 4.2807,-11.57895 22.03509,0 4.2807,11.57895 14.17544,0 -23.36842,-57.89474 z m 0.42105,34.73685 -13.05263,0 6.45614,-16.84211 0.14035,0 6.45614,16.84211 z"/>
		<path d="m 567.39584,432.10526 0,57.89474 13.19298,0 0,-22.87719 17.68421,22.87719 16.77193,0 -19.92982,-23.92982 c 7.08772,-2.24562 11.85965,-8.07018 11.85965,-16.77193 0,-11.36842 -8.14035,-17.19299 -18.8772,-17.19299 l -20.70175,0 z m 13.19298,25.68421 0,-15.15789 1.54386,0 c 4.98246,0 10.94737,0.35088 10.94737,7.57895 0,7.22807 -5.96491,7.57894 -10.94737,7.57894 l -1.54386,0 z"/>
		<path d="m 675.39912,490 -26.94736,-30.45614 23.29824,-27.4386 -16,0 -19.85965,23.64913 0,-23.64913 -13.19298,0 0,57.89474 13.19298,0 0,-24.5614 21.33333,24.5614 18.17544,0 z"/>
		<path d="m 700.04603,443.68421 13.75439,0 0,46.31579 13.19298,0 0,-46.31579 13.75439,0 0,-11.57895 -40.70176,0 0,11.57895 z"/>
		<path d="m 794.91995,490 14.59649,0 16.49123,-57.89474 -14.59649,0 -9.89474,39.7193 -0.35088,0 -10.52631,-39.7193 -9.96491,0 -10.52632,39.7193 -0.35088,0 -9.89473,-39.7193 -14.66667,0 16.49123,57.89474 14.66666,0 9.26316,-32.49123 L 794.91995,490 Z"/>
		<path d="m 857.13376,432.10526 -12.21053,0 L 821.55481,490 l 14.17544,0 4.2807,-11.57895 22.03509,0 4.2807,11.57895 14.17544,0 -23.36842,-57.89474 z m 0.42105,34.73685 -13.05263,0 6.45614,-16.84211 0.14035,0 6.45614,16.84211 z"/>
		<path d="m 900.88487,432.10526 -13.19298,0 0,57.89474 13.19298,0 0,-57.89474 z"/>
		<path d="m 927.54057,454.07018 0.14036,0 23.01754,35.92982 13.19298,0 0,-57.89474 -13.19298,0 0,35.92983 -0.14035,0 -23.01755,-35.92983 -13.19298,0 0,57.89474 13.19298,0 0,-35.92982 z"/>
	</g>
</svg>

<?xml version="1.0" encoding="utf-8"?>
<svg xmlns="http://www.w3.org/2000/svg" xmlns:svg="http://www.w3.org/2000/svg" version="1.1" viewBox="0 0 1400 540">
	<title>The titlepage for the Standard Ebooks edition of A Connecticut Yankee in King Arthur’s Court, by Mark Twain</title>
	<g aria-label="A CONNECTICUT">
		<path d="M 314.32529,52.807016 H 298.04458 L 266.88669,130 h 18.90058 l 5.70761,-15.4386 h 29.38011 L 326.5826,130 h 18.90058 z m 0.5614,46.31579 h -17.40351 l 8.60819,-22.45614 h 0.18713 z"/>
		<path d="m 422.13962,114.09357 c -17.68421,0 -25.4503,-12.35088 -25.4503,-22.736846 0,-10.292397 7.76609,-22.643275 25.4503,-22.643275 8.98245,0 15.15789,4.77193 15.15789,4.77193 l 7.48538,-14.97076 c 0,0 -8.60819,-7.111112 -25.35672,-7.111112 -21.89474,0 -41.82457,17.964913 -41.82457,40.140352 0,22.081871 20.0234,39.859651 41.82457,39.859651 16.74853,0 25.35672,-7.11111 25.35672,-7.11111 l -7.48538,-14.97076 c 0,0 -6.17544,4.77193 -15.15789,4.77193 z"/>
		<path d="m 453.14254,91.356724 c 0,22.549706 16.09356,40.046786 38.92397,40.046786 22.17544,0 38.83041,-17.49708 38.83041,-40.046786 0,-22.549708 -17.40351,-39.953217 -38.83041,-39.953217 -21.23976,0 -38.92397,17.403509 -38.92397,39.953217 z m 18.99415,0 c 0,-11.508772 6.36257,-23.017544 19.92982,-23.017544 13.66082,0 19.83626,11.508772 19.83626,23.017544 0,11.508776 -5.80117,23.017546 -19.83626,23.017546 -14.40935,0 -19.92982,-11.50877 -19.92982,-23.017546 z"/>
		<path d="m 561.24928,82.093566 h 0.18713 L 592.12647,130 h 17.59064 V 52.807016 h -17.59064 v 47.906434 h -0.18714 L 561.24928,52.807016 H 543.65863 V 130 h 17.59065 z"/>
		<path d="m 643.55189,82.093566 h 0.18713 L 674.42908,130 h 17.59064 V 52.807016 h -17.59064 v 47.906434 h -0.18713 L 643.55189,52.807016 H 625.96124 V 130 h 17.59065 z"/>
		<path d="M 752.42763,52.807016 H 708.26389 V 130 h 44.16374 v -15.4386 h -26.5731 V 99.029239 h 25.45029 V 83.590642 H 725.85453 V 68.245613 h 26.5731 z"/>
		<path d="m 808.61625,114.09357 c -17.68421,0 -25.45029,-12.35088 -25.45029,-22.736846 0,-10.292397 7.76608,-22.643275 25.45029,-22.643275 8.98245,0 15.15789,4.77193 15.15789,4.77193 l 7.48538,-14.97076 c 0,0 -8.60818,-7.111112 -25.35672,-7.111112 -21.89474,0 -41.82456,17.964913 -41.82456,40.140352 0,22.081871 20.02339,39.859651 41.82456,39.859651 16.74854,0 25.35672,-7.11111 25.35672,-7.11111 l -7.48538,-14.97076 c 0,0 -6.17544,4.77193 -15.15789,4.77193 z"/>
		<path d="m 838.21568,68.245613 h 18.33918 V 130 h 17.59065 V 68.245613 h 18.33918 V 52.807016 h -54.26901 z"/>
		<path d="M 921.4101,52.807016 H 903.81946 V 130 h 17.59064 z"/>
		<path d="m 975.8458,114.09357 c -17.68421,0 -25.45029,-12.35088 -25.45029,-22.736846 0,-10.292397 7.76608,-22.643275 25.45029,-22.643275 8.98246,0 15.1579,4.77193 15.1579,4.77193 l 7.48538,-14.97076 c 0,0 -8.60819,-7.111112 -25.35673,-7.111112 -21.89474,0 -41.82456,17.964913 -41.82456,40.140352 0,22.081871 20.02339,39.859651 41.82456,39.859651 16.74854,0 25.35673,-7.11111 25.35673,-7.11111 l -7.48538,-14.97076 c 0,0 -6.17544,4.77193 -15.1579,4.77193 z"/>
		<path d="m 1069.6323,52.807016 h -17.5906 v 44.63158 c 0,12.912284 -3.9299,16.654974 -12.538,16.654974 -8.6082,0 -12.5381,-3.74269 -12.5381,-16.654974 v -44.63158 h -17.5906 v 49.777774 c 0,19.08772 10.4795,28.81872 30.1287,28.81872 19.6491,0 30.1286,-9.731 30.1286,-28.81872 z"/>
		<path d="m 1075.5036,68.245613 h 18.3392 V 130 h 17.5907 V 68.245613 h 18.3392 V 52.807016 h -54.2691 z"/>
	</g>
	<g aria-label="YANKEE IN">
		<path d="m 414.6747,152.80702 28.44445,42.5731 V 230 h 17.59064 v -34.61988 l 28.44445,-42.5731 h -21.1462 l -16.09357,24.70175 -16.09357,-24.70175 z"/>
		<path d="M 527.7902,152.80702 H 511.5095 L 480.35161,230 h 18.90058 l 5.7076,-15.4386 h 29.38012 L 540.04751,230 h 18.90059 z m 0.56141,46.31579 H 510.9481 l 8.60819,-22.45614 h 0.18713 z"/>
		<path d="m 584.45834,182.09357 h 0.18714 L 615.33553,230 h 17.59065 v -77.19298 h -17.59065 v 47.90643 H 615.1484 L 584.45834,152.80702 H 566.8677 V 230 h 17.59064 z"/>
		<path d="m 719.43933,230 -35.92982,-40.60819 31.06433,-36.58479 H 693.2405 l -26.47953,31.53216 V 152.80702 H 649.17033 V 230 h 17.59064 V 197.25146 L 695.20541,230 Z"/>
		<path d="M 771.98173,152.80702 H 727.81798 V 230 h 44.16375 v -15.4386 h -26.5731 v -15.53216 h 25.45029 v -15.4386 h -25.45029 v -15.34503 h 26.5731 z"/>
		<path d="M 831.25803,152.80702 H 787.09429 V 230 h 44.16374 v -15.4386 h -26.5731 v -15.53216 h 25.4503 v -15.4386 h -25.4503 v -15.34503 h 26.5731 z"/>
		<path d="M 894.54605,152.80702 H 876.95541 V 230 h 17.59064 z"/>
		<path d="m 928.42032,182.09357 h 0.18713 L 959.29751,230 h 17.59064 v -77.19298 h -17.59064 v 47.90643 h -0.18713 L 928.42032,152.80702 H 910.82967 V 230 h 17.59065 z"/>
	</g>
	<g aria-label="KING ARTHUR’S COURT">
		<path d="m 162.16958,330 -35.92982,-40.60819 31.06432,-36.58479 h -21.33333 l -26.47953,31.53216 V 252.80702 H 91.900575 V 330 H 109.49122 V 297.25146 L 137.93566,330 Z"/>
		<path d="M 188.13888,252.80702 H 170.54823 V 330 h 17.59065 z"/>
		<path d="m 222.01315,282.09357 h 0.18713 L 252.89034,330 h 17.59064 v -77.19298 h -17.59064 v 47.90643 H 252.7032 L 222.01315,252.80702 H 204.4225 V 330 h 17.59065 z"/>
		<path d="m 356.52632,286.77193 h -35.64913 v 13.56725 h 17.77778 c 0,9.45029 -8.32749,14.87719 -16.74854,14.87719 -10.8538,0 -19.64912,-10.66666 -19.64912,-23.76608 0,-13.38012 8.79532,-24.14035 19.64912,-24.14035 6.83041,0 12.72515,2.71345 17.21638,9.91813 l 11.50877,-12.63158 c -6.73684,-8.14035 -16.18714,-13.19298 -29.75439,-13.19298 -21.7076,0 -37.61403,17.87134 -37.61403,40.04678 0,22.08187 16.8421,39.95322 37.61403,39.95322 15.1579,0 31.4386,-8.32749 35.64913,-27.88304 z"/>
		<path d="M 439,252.80702 H 422.7193 L 391.5614,330 h 18.90059 l 5.7076,-15.4386 h 29.38012 L 451.25731,330 h 18.90058 z m 0.5614,46.31579 h -17.40351 l 8.60819,-22.45614 h 0.18714 z"/>
		<path d="M 478.07749,252.80702 V 330 h 17.59064 V 299.49708 L 519.24708,330 h 22.36257 l -26.5731,-31.90643 c 9.45029,-2.99416 15.81287,-10.76024 15.81287,-22.36258 0,-15.15789 -10.85381,-22.92397 -25.1696,-22.92397 z m 17.59064,34.24561 V 266.8421 h 2.05848 c 6.64327,0 14.59649,0.46784 14.59649,10.10527 0,9.63742 -7.95322,10.10526 -14.59649,10.10526 z"/>
		<path d="M 541.62571,268.24561 H 559.9649 V 330 h 17.59064 v -61.75439 h 18.33918 v -15.43859 h -54.26901 z"/>
		<path d="m 624.8202,299.02924 h 24.88889 V 330 h 17.59064 v -77.19298 h -17.59064 v 30.78362 H 624.8202 V 252.80702 H 607.22955 V 330 h 17.59065 z"/>
		<path d="m 742.8231,252.80702 h -17.59064 v 44.63158 c 0,12.91228 -3.92982,16.65497 -12.53801,16.65497 -8.60819,0 -12.53801,-3.74269 -12.53801,-16.65497 v -44.63158 h -17.59065 v 49.77777 c 0,19.08772 10.47954,28.81872 30.12866,28.81872 19.64912,0 30.12865,-9.731 30.12865,-28.81872 z"/>
		<path d="M 758.12866,252.80702 V 330 h 17.59065 V 299.49708 L 799.29825,330 h 22.36258 l -26.5731,-31.90643 c 9.45029,-2.99416 15.81286,-10.76024 15.81286,-22.36258 0,-15.15789 -10.8538,-22.92397 -25.16959,-22.92397 z m 17.59065,34.24561 V 266.8421 h 2.05848 c 6.64327,0 14.59649,0.46784 14.59649,10.10527 0,9.63742 -7.95322,10.10526 -14.59649,10.10526 z"/>
		<path d="m 839.83482,251.40351 c -5.33334,0 -9.63743,4.39766 -9.63743,9.82456 0,4.39766 3.18129,7.76608 7.29824,8.79532 C 836.18569,277.1345 831.03949,282 831.03949,282 l 4.39766,3.46199 c 6.83041,-5.7076 14.22223,-14.03509 14.22223,-24.23392 0,-5.4269 -4.39766,-9.82456 -9.82456,-9.82456 z"/>
		<path d="m 890.87133,251.40351 c -12.44445,0 -25.1696,9.16959 -25.1696,23.57895 0,8.04678 5.42691,15.25146 14.69006,19.83625 9.16959,4.5848 17.40351,7.11111 17.40351,12.72515 0,7.20468 -7.29824,7.57895 -11.1345,7.57895 -8.60819,0 -18.90059,-8.70176 -18.90059,-8.70176 l -8.79532,14.78363 c 0,0 10.94737,10.19883 29.00585,10.19883 15.06433,0 29.09942,-6.45614 29.09942,-24.88889 0,-10.10526 -9.4503,-17.40351 -18.05848,-21.05263 -8.79532,-3.74269 -16.09357,-6.83041 -16.09357,-11.13451 0,-4.21052 3.18129,-6.92397 9.16959,-6.92397 7.95322,0 15.62573,5.33333 15.62573,5.33333 l 7.11111,-14.03509 c 0,0 -9.91813,-7.29824 -23.95321,-7.29824 z"/>
		<path d="m 999.02927,314.09357 c -17.68421,0 -25.45029,-12.35088 -25.45029,-22.73685 0,-10.29239 7.76608,-22.64327 25.45029,-22.64327 8.98243,0 15.15793,4.77193 15.15793,4.77193 l 7.4853,-14.97076 c 0,0 -8.6081,-7.11111 -25.35668,-7.11111 -21.89474,0 -41.82456,17.96491 -41.82456,40.14035 0,22.08187 20.02339,39.85965 41.82456,39.85965 16.74858,0 25.35668,-7.11111 25.35668,-7.11111 l -7.4853,-14.97076 c 0,0 -6.1755,4.77193 -15.15793,4.77193 z"/>
		<path d="m 1030.0322,291.35672 c 0,22.54971 16.0935,40.04679 38.9239,40.04679 22.1755,0 38.8304,-17.49708 38.8304,-40.04679 0,-22.5497 -17.4035,-39.95321 -38.8304,-39.95321 -21.2397,0 -38.9239,17.40351 -38.9239,39.95321 z m 18.9941,0 c 0,-11.50877 6.3626,-23.01754 19.9298,-23.01754 13.6608,0 19.8363,11.50877 19.8363,23.01754 0,11.50878 -5.8012,23.01755 -19.8363,23.01755 -14.4093,0 -19.9298,-11.50877 -19.9298,-23.01755 z"/>
		<path d="m 1179.8699,252.80702 h -17.5906 v 44.63158 c 0,12.91228 -3.9298,16.65497 -12.538,16.65497 -8.6082,0 -12.538,-3.74269 -12.538,-16.65497 v -44.63158 h -17.5907 v 49.77777 c 0,19.08772 10.4795,28.81872 30.1287,28.81872 19.6491,0 30.1286,-9.731 30.1286,-28.81872 z"/>
		<path d="M 1195.1755,252.80702 V 330 h 17.5906 V 299.49708 L 1236.3451,330 h 22.3625 l -26.5731,-31.90643 c 9.4503,-2.99416 15.8129,-10.76024 15.8129,-22.36258 0,-15.15789 -10.8538,-22.92397 -25.1696,-22.92397 z m 17.5906,34.24561 V 266.8421 h 2.0585 c 6.6433,0 14.5965,0.46784 14.5965,10.10527 0,9.63742 -7.9532,10.10526 -14.5965,10.10526 z"/>
		<path d="m 1258.7237,268.24561 h 18.3392 V 330 h 17.5906 v -61.75439 h 18.3392 v -15.43859 h -54.269 z"/>
	</g>
	<g aria-label="MARK TWAIN">
		<path d="m 483.95614,490 h 13.19298 l -5.19298,-57.89474 h -14.03509 l -12.8421,33.40351 -12.84211,-33.40351 H 438.20176 L 433.00877,490 h 13.19299 l 2.73684,-34.31579 h 0.35088 l 11.85964,33.96491 h 7.85965 l 11.85965,-33.96491 h 0.35088 z"/>
		<path d="M 536.83772,432.10526 H 524.62719 L 501.25877,490 h 14.17544 l 4.2807,-11.57895 H 541.75 L 546.0307,490 h 14.17544 z m 0.42105,34.73685 H 524.20614 L 530.66228,450 h 0.14035 z"/>
		<path d="M 567.39584,432.10526 V 490 h 13.19298 V 467.12281 L 598.27303,490 h 16.77193 l -19.92982,-23.92982 c 7.08772,-2.24562 11.85965,-8.07018 11.85965,-16.77193 0,-11.36842 -8.14035,-17.19299 -18.8772,-17.19299 z m 13.19298,25.68421 v -15.15789 h 1.54386 c 4.98246,0 10.94737,0.35088 10.94737,7.57895 0,7.22807 -5.96491,7.57894 -10.94737,7.57894 z"/>
		<path d="M 675.39912,490 648.45176,459.54386 671.75,432.10526 h -16 l -19.85965,23.64913 V 432.10526 H 622.69737 V 490 h 13.19298 V 465.4386 L 657.22368,490 Z"/>
		<path d="m 700.04603,443.68421 h 13.75439 V 490 h 13.19298 v -46.31579 h 13.75439 v -11.57895 h -40.70176 z"/>
		<path d="m 794.91995,490 h 14.59649 l 16.49123,-57.89474 h -14.59649 l -9.89474,39.7193 h -0.35088 l -10.52631,-39.7193 h -9.96491 l -10.52632,39.7193 h -0.35088 l -9.89473,-39.7193 H 745.23574 L 761.72697,490 h 14.66666 l 9.26316,-32.49123 z"/>
		<path d="M 857.13376,432.10526 H 844.92323 L 821.55481,490 h 14.17544 l 4.2807,-11.57895 h 22.03509 L 866.32674,490 h 14.17544 z m 0.42105,34.73685 H 844.50218 L 850.95832,450 h 0.14035 z"/>
		<path d="M 900.88487,432.10526 H 887.69189 V 490 h 13.19298 z"/>
		<path d="m 927.54057,454.07018 h 0.14036 L 950.69847,490 h 13.19298 v -57.89474 h -13.19298 v 35.92983 h -0.14035 L 927.54057,432.10526 H 914.34759 V 490 h 13.19298 z"/>
	</g>
</svg>
